X: 28190
T: Mrs Webster
R: reel
M: 4/4
K: Eminor
|:F|GEBE GEEG|FDAD FDDF|GEBE cEBE|FDAF GEE:|
D|E2 BA GEEG|FDAG FDDF|E2 BA GEEG|FdAF GEED|
E2 BA GEEG|FDAG FDDF|EGFA GBAc|BAGF GEE||

